packages/bezier-icons/icons/untag-filled.svg

<svg width="24" height="24" viewBox="0 0 24 24" fill="none" xmlns="http://www.w3.org/2000/svg">
<path fill-rule="evenodd" clip-rule="evenodd" d="M20.0858 20.5C20.4763 20.8905 21.1095 20.8905 21.5 20.5C21.8905 20.1095 21.8905 19.4763 21.5 19.0858L18.6569 16.2427L22.1924 12.7071C22.3799 12.5196 22.4853 12.2652 22.4853 12V4.51474C22.4853 3.41017 21.5899 2.51474 20.4853 2.51474H13C12.7348 2.51474 12.4804 2.6201 12.2929 2.80763L8.75737 6.34316L4.91421 2.5C4.52369 2.10948 3.89053 2.10948 3.5 2.5C3.10948 2.89053 3.10948 3.52369 3.5 3.91421L20.0858 20.5ZM3.3934 11.7071L6.34316 8.75737L16.2427 18.6569L13.2929 21.6066C12.1213 22.7782 10.2218 22.7782 9.05025 21.6066L3.3934 15.9498C2.22182 14.7782 2.22182 12.8787 3.3934 11.7071ZM19 7.99997C19 9.1053 18.1053 9.99997 17 9.99997C15.896 9.99997 15 9.1053 15 7.99997C15 6.89464 15.896 5.99997 17 5.99997C18.1053 5.99997 19 6.89464 19 7.99997Z" fill="#313234"/>
</svg>

<svg xmlns="http://www.w3.org/2000/svg" width="24" height="24" fill="none" viewBox="0 0 24 24"><path fill="#313234" fill-rule="evenodd" d="M20.086 20.5a1 1 0 0 0 1.414-1.414l-2.843-2.843 3.535-3.536a1 1 0 0 0 .293-.707V4.515a2 2 0 0 0-2-2H13a1 1 0 0 0-.707.293L8.757 6.343 4.914 2.5A1 1 0 0 0 3.5 3.914zM3.393 11.707l2.95-2.95 9.9 9.9-2.95 2.95a3 3 0 0 1-4.243 0L3.393 15.95a3 3 0 0 1 0-4.243M19 8a1.999 1.999 0 1 1-4 0 2 2 0 1 1 4 0" clip-rule="evenodd"/></svg>
